src/assets/filled/UsdCoin.svg

<svg width="24" height="24" viewBox="0 0 24 24"  xmlns="http://www.w3.org/2000/svg">
<path d="M12.75 14.5203H12.98C13.31 14.5203 13.59 14.2203 13.59 13.8503C13.59 13.3803 13.48 13.3203 13.16 13.2103L12.75 13.0703V14.5203Z" />
<path d="M12 2C6.48 2 2 6.48 2 12C2 17.52 6.48 22 12 22C17.52 22 22 17.52 22 12C22 6.48 17.52 2 12 2ZM7.57999 16.42C7.86999 16.71 7.86999 17.19 7.57999 17.48C7.42999 17.63 7.23999 17.7 7.04999 17.7C6.85999 17.7 6.66999 17.63 6.51999 17.48C5.05999 16.02 4.25 14.07 4.25 12C4.25 9.93 5.05999 7.98 6.51999 6.52C6.80999 6.23 7.28999 6.23 7.57999 6.52C7.86999 6.81 7.86999 7.29 7.57999 7.58C6.39999 8.76 5.75 10.33 5.75 12C5.75 13.67 6.39999 15.24 7.57999 16.42ZM13.65 11.78C14.61 12.12 15.08 12.79 15.08 13.84C15.08 15.04 14.14 16.01 12.97 16.01H12.74V16.19C12.74 16.6 12.4 16.94 11.99 16.94C11.58 16.94 11.24 16.6 11.24 16.19V16.01H11.21C9.93999 16.01 8.89999 14.94 8.89999 13.63C8.89999 13.22 9.23999 12.88 9.64999 12.88C10.06 12.88 10.4 13.22 10.4 13.63C10.4 14.12 10.76 14.51 11.21 14.51H11.24V12.53L10.34 12.21C9.38 11.87 8.91 11.2 8.91 10.15C8.91 8.95 9.84999 7.98 11.02 7.98H11.25V7.8C11.25 7.39 11.59 7.05 12 7.05C12.41 7.05 12.75 7.39 12.75 7.8V7.98H12.78C14.05 7.98 15.09 9.05 15.09 10.36C15.09 10.77 14.75 11.11 14.34 11.11C13.93 11.11 13.59 10.77 13.59 10.36C13.59 9.87 13.23 9.48 12.78 9.48H12.75V11.46L13.65 11.78ZM17.48 17.48C17.33 17.63 17.14 17.7 16.95 17.7C16.76 17.7 16.57 17.63 16.42 17.48C16.13 17.19 16.13 16.71 16.42 16.42C17.6 15.24 18.25 13.67 18.25 12C18.25 10.33 17.6 8.76 16.42 7.58C16.13 7.29 16.13 6.81 16.42 6.52C16.71 6.23 17.19 6.23 17.48 6.52C18.94 7.98 19.75 9.93 19.75 12C19.75 14.07 18.94 16.02 17.48 17.48Z" />
<path d="M10.4199 10.1605C10.4199 10.6305 10.5299 10.6905 10.8499 10.8005L11.2599 10.9405V9.48047H11.0299C10.6899 9.48047 10.4199 9.79047 10.4199 10.1605Z" />
</svg>

<?xml version="1.0" encoding="UTF-8"?>
<svg width="24" height="24" viewBox="0 0 24 24" xmlns="http://www.w3.org/2000/svg">
 <path d="m12.75 14.52h0.23c0.33 0 0.61-0.3 0.61-0.67 0-0.47-0.11-0.53-0.43-0.64l-0.41-0.14v1.45z"/>
 <path d="m12 2c-5.52 0-10 4.48-10 10s4.48 10 10 10 10-4.48 10-10-4.48-10-10-10zm-4.42 14.42c0.29 0.29 0.29 0.77 0 1.06-0.15 0.15-0.34 0.22-0.53 0.22s-0.38-0.07-0.53-0.22c-1.46-1.46-2.27-3.41-2.27-5.48s0.80999-4.02 2.27-5.48c0.29-0.29 0.77-0.29 1.06 0s0.29 0.77 0 1.06c-1.18 1.18-1.83 2.75-1.83 4.42s0.64999 3.24 1.83 4.42zm6.07-4.64c0.96 0.34 1.43 1.01 1.43 2.06 0 1.2-0.94 2.17-2.11 2.17h-0.23v0.18c0 0.41-0.34 0.75-0.75 0.75s-0.75-0.34-0.75-0.75v-0.18h-0.03c-1.27 0-2.31-1.07-2.31-2.38 0-0.41 0.34-0.75 0.75-0.75 0.41001 0 0.75001 0.34 0.75001 0.75 0 0.49 0.36 0.88 0.81 0.88h0.03v-1.98l-0.9-0.32c-0.96-0.34-1.43-1.01-1.43-2.06 0-1.2 0.93999-2.17 2.11-2.17h0.23v-0.18c0-0.41 0.34-0.75 0.75-0.75s0.75 0.34 0.75 0.75v0.18h0.03c1.27 0 2.31 1.07 2.31 2.38 0 0.41-0.34 0.75-0.75 0.75s-0.75-0.34-0.75-0.75c0-0.49-0.36-0.88-0.81-0.88h-0.03v1.98l0.9 0.32zm3.83 5.7c-0.15 0.15-0.34 0.22-0.53 0.22s-0.38-0.07-0.53-0.22c-0.29-0.29-0.29-0.77 0-1.06 1.18-1.18 1.83-2.75 1.83-4.42s-0.65-3.24-1.83-4.42c-0.29-0.29-0.29-0.77 0-1.06s0.77-0.29 1.06 0c1.46 1.46 2.27 3.41 2.27 5.48s-0.81 4.02-2.27 5.48z"/>
 <path d="m10.42 10.16c0 0.47 0.11 0.53 0.43 0.64l0.41 0.14v-1.46h-0.23c-0.34 0-0.61 0.31-0.61 0.68003z"/>
</svg>
